X:2
T:Maclotte
B:Suite d'Habiemont
O:Wallonie
M:2/4
L:1/8
Q:C4=60
K:G
G3/A/ BB/A/ | GA BB/c/ | dB GB | A/G/A/B/ AA |
G3/A/ BB/A/ | GA BB/c/ | dB GB | A2 G z :|
de/f/ gf/e/ | de ed | de/f/ gf/e/ | dc B2 |
dd ed | cB AB/c/ | dB GB | A2 G z :|
